javascript.info/9-regular-expressions/08-regexp-greedy-and-lazy/witch_lazy3.svg

<?xml version="1.0" encoding="UTF-8"?>
<svg width="463px" height="130px" viewBox="0 0 463 130" version="1.1" xmlns="http://www.w3.org/2000/svg" xmlns:xlink="http://www.w3.org/1999/xlink">
    <!-- Generator: sketchtool 55.2 (78181) - https://sketchapp.com -->
    <title>witch_lazy3.svg</title>
    <desc>Created with sketchtool.</desc>
    <g id="regexp" stroke="none" stroke-width="1" fill="none" fill-rule="evenodd">
        <g id="witch_lazy3.svg">
            <text id="a-&quot;witch&quot;-and-her-&quot;b" font-family="PTMono-Regular, PT Mono" font-size="22" font-weight="normal" fill="#8A704D">
                <tspan x="20" y="105">a "witch" and her "broom" is one</tspan>
            </text>
            <rect id="Rectangle-1" stroke="#E8C48E" x="45.5" y="43.5" width="28" height="76"></rect>
            <path d="M52.0039062,53.4414062 L51.6757812,58.9375 L49.7539062,58.9375 L49.4140625,53.4414062 L52.0039062,53.4414062 Z M56.5625,53.4414062 L56.234375,58.9375 L54.3125,58.9375 L53.9726562,53.4414062 L56.5625,53.4414062 Z M66.0898438,66.3085938 C66.3554701,66.3085938 66.6074207,66.3593745 66.8457031,66.4609375 C67.0839856,66.5625005 67.2910147,66.7031241 67.4667969,66.8828125 C67.642579,67.0625009 67.7812495,67.2714832 67.8828125,67.5097656 C67.9843755,67.7480481 68.0351562,68.0039049 68.0351562,68.2773438 C68.0351562,68.5429701 67.9843755,68.7929676 67.8828125,69.0273438 C67.7812495,69.2617199 67.642579,69.466796 67.4667969,69.6425781 C67.2910147,69.8183603 67.0839856,69.9570307 66.8457031,70.0585938 C66.6074207,70.1601568 66.3554701,70.2109375 66.0898438,70.2109375 C65.8164049,70.2109375 65.5625012,70.1601568 65.328125,70.0585938 C65.0937488,69.9570307 64.8886728,69.8183603 64.7128906,69.6425781 C64.5371085,69.466796 64.398438,69.2617199 64.296875,69.0273438 C64.195312,68.7929676 64.1445312,68.5429701 64.1445312,68.2773438 C64.1445312,68.0039049 64.195312,67.7480481 64.296875,67.5097656 C64.398438,67.2714832 64.5371085,67.0625009 64.7128906,66.8828125 C64.8886728,66.7031241 65.0937488,66.5625005 65.328125,66.4609375 C65.5625012,66.3593745 65.8164049,66.3085938 66.0898438,66.3085938 L66.0898438,66.3085938 Z" id="--&quot;.&quot;---------------" fill="#CB1E31"></path>
            <polygon id="Path" fill="#5C8058" points="78.3945312 53.4414062 78.0664062 58.9375 76.1445312 58.9375 75.8046875 53.4414062"></polygon>
            <polygon id="Path" fill="#5C8058" points="82.953125 53.4414062 82.625 58.9375 80.703125 58.9375 80.3632812 53.4414062"></polygon>
            <path id="Line" d="M60,34.5 L45,34.5 L45,32.5 L60,32.5 L60,26.5 L74,33.5 L60,40.5 L60,34.5 Z" fill="#EE6B47" fill-rule="nonzero"></path>
        </g>
    </g>
</svg>

<svg xmlns="http://www.w3.org/2000/svg" width="463" height="130" viewBox="0 0 463 130"><defs><style>@import url(https://fonts.googleapis.com/css?family=Open+Sans:bold,italic,bolditalic%7CPT+Mono);@font-face{font-family:&apos;PT Mono&apos;;font-weight:700;font-style:normal;src:local(&apos;PT MonoBold&apos;),url(/pack/modules/styles/blocks/font/PTMonoBold.woff2) format(&apos;woff2&apos;),url(/pack/modules/styles/blocks/font/PTMonoBold.woff) format(&apos;woff&apos;),url(/pack/modules/styles/blocks/font/PTMonoBold.ttf) format(&apos;truetype&apos;)}</style></defs><g id="regexp" fill="none" fill-rule="evenodd" stroke="none" stroke-width="1"><g id="witch_lazy3.svg"><text id="a-&quot;witch&quot;-and-her-&quot;b" fill="#8A704D" font-family="PTMono-Regular, PT Mono" font-size="22" font-weight="normal"><tspan x="20" y="105">a &quot;witch&quot; and her &quot;broom&quot; is one</tspan></text><path id="Rectangle-1" stroke="#E8C48E" d="M45.5 43.5h28v76h-28z"/><path id="--&quot;.&quot;---------------" fill="#CB1E31" d="M52.004 53.441l-.328 5.496h-1.922l-.34-5.496h2.59zm4.559 0l-.329 5.496h-1.922l-.34-5.496h2.59zM66.09 66.31c.265 0 .517.05.756.152.238.102.445.242.62.422.177.18.315.388.417.627.101.238.152.494.152.767 0 .266-.05.516-.152.75a1.95 1.95 0 01-1.793 1.184c-.274 0-.527-.05-.762-.152a1.967 1.967 0 01-1.031-1.032 1.866 1.866 0 01-.152-.75c0-.273.05-.529.152-.767a2.02 2.02 0 01.416-.627 1.895 1.895 0 011.377-.574z"/><path id="Path" fill="#5C8058" d="M78.395 53.441l-.329 5.496h-1.921l-.34-5.496zM82.953 53.441l-.328 5.496h-1.922l-.34-5.496z"/><path id="Line" fill="#EE6B47" fill-rule="nonzero" d="M60 34.5H45v-2h15v-6l14 7-14 7v-6z"/></g></g></svg>
